X:72
T:Manx Sword Dance
M:6/8
L:1/6
S:Philip Leighton Stowell
C:Trad
O:Isle of Man
Q:126
R:Jig
N:The sequence
Z:Colin Messer 9-Dec-2002
R:AB
K:D
[| A2A A2F | A2A A2F | B2B B2A | B2c d2B | A2A A2F | A2B A2F | f2e d2B | A2B A2F ||
|| A2A A2F | A2B A2F | B2B B2A | B2c d2B | A2A A2F | A2B A2F | f2e d2B | A2c d3 ||
|: f2f f2d | f2g f2d | a2f e2d | B2d B2A | f2f f2d | f2g f2d | a2f e2d | B2c d3 :|

